X: 16000
T: Great Barrier, The
R: reel
M: 4/4
K: Eminor
|:GA|BE^DE E2 =DE|G2 BG AcBA|BE E/E/E E/G/E DE|G2 BG A2 cA|
BEGE EGDE|G/B/G BG A2 ^GA|BedB AcBA|GEFD EF:|
GA|:Be^de BEDE|BeeB g2 f/e/d|Be e/e/e BE E/E/E|FDEF DEFA|
Be e2 BE E2|Be^de g2 ga|bgaf g2 f/e/d|1 AF D/E/F A2 c/B/A:|2 A2 F/E/D EF||

